src/icons/aegis.svg

<svg width="81" height="81" viewBox="0 0 81 81" xmlns="http://www.w3.org/2000/svg"><path fill-rule="evenodd" clip-rule="evenodd" d="M60.5155 21.7935L61.8855 21.9935L63.5854 23.9335V38.1135C63.5854 47.9735 58.8254 55.2835 54.0854 60.1135C51.1565 63.117 47.7839 65.6532 44.0854 67.6335L43.3855 67.9935H41.5854L40.8654 67.6335C39.665 67.0159 38.5059 66.3211 37.3954 65.5535L39.6655 62.2635C40.5743 62.8887 41.5193 63.4597 42.4955 63.9734C45.7313 62.1977 48.6894 59.9573 51.2755 57.3235C55.5554 52.9535 59.6255 46.5935 59.6255 38.1235V25.7134C53.1701 24.7121 47.1847 21.7317 42.4955 17.1835C37.8018 21.7328 31.814 24.7162 25.3555 25.7234V31.7735H21.3555V23.9935L23.0655 21.9935L24.3555 21.7635C30.1768 20.9232 35.5767 18.2425 39.7655 14.1135L40.9155 12.8335H43.9155L45.0655 14.1135C49.2574 18.2657 54.6745 20.9585 60.5155 21.7935ZM38.1953 37.9137C36.5586 36.2721 34.4688 35.1539 32.1953 34.7003C29.9219 34.2467 27.5625 34.4786 25.4219 35.3668C23.2774 36.2545 21.4493 37.7584 20.1641 39.6881C19.7578 40.2965 19.4102 40.9386 19.125 41.6056C18.5118 43.0528 18.1914 44.6163 18.1953 46.2037C18.3125 48.5528 18.8789 50.858 19.8672 52.9938C20.3985 54.2247 20.9766 55.4342 21.5977 56.6197C22.1328 57.6363 22.7032 58.6349 23.3047 59.6139C24.5469 61.6139 25.7735 63.464 26.6953 64.7638C26.9766 65.1554 27.4922 65.8507 27.8516 66.3336L28.2461 66.8639H31.4063C31.4063 66.8639 32.5039 65.4239 32.9766 64.774C33.9141 63.484 35.1758 61.6739 36.4336 59.6339C37.7578 57.5143 38.9297 55.3019 39.9336 53.0138C40.9375 50.8688 41.5118 48.5489 41.625 46.1837C41.6211 43.0816 40.3868 40.108 38.1953 37.9137ZM36.2539 51.464C35.3321 53.5714 34.25 55.607 33.0235 57.5538C31.875 59.4137 30.7344 61.0738 29.8438 62.3038C28.9766 61.0738 27.8438 59.4239 26.7344 57.5641C25.5274 55.6149 24.4649 53.5792 23.5547 51.4737C22.7852 49.8155 22.3243 48.0289 22.2071 46.2037C22.2071 44.1588 23.0196 42.1979 24.4649 40.7521C25.9102 39.3063 27.8711 38.4938 29.9141 38.4938C31.961 38.4938 33.9219 39.3063 35.3672 40.7521C36.086 41.4718 36.6485 42.3194 37.0352 43.2418C37.4219 44.1715 37.625 45.1769 37.625 46.2037C37.5039 48.0279 37.0391 49.8131 36.2539 51.464ZM32.0391 44.2638C31.6211 43.8439 31.0821 43.5582 30.5 43.444C29.918 43.3238 29.3164 43.3834 28.7696 43.6139C28.2227 43.8395 27.75 44.2233 27.418 44.7164C27.0899 45.2096 26.9102 45.7897 26.9102 46.3839C26.9102 46.9274 27.0586 47.4601 27.3399 47.9259C27.6172 48.3917 28.0196 48.7731 28.5 49.0289C28.7188 49.1461 28.9532 49.235 29.1914 49.2941C29.4766 49.3639 29.7696 49.3922 30.0625 49.3775C30.6055 49.3502 31.1289 49.1764 31.5821 48.8736C31.75 48.7594 31.9063 48.6295 32.0508 48.4855C32.3203 48.2125 32.5391 47.8902 32.6914 47.5338C32.9102 46.9816 32.9688 46.378 32.8594 45.7936C32.7422 45.214 32.4571 44.6817 32.0391 44.2638Z"/></svg>

<svg xmlns="http://www.w3.org/2000/svg" width="81" height="81" viewBox="0 0 81 81"><path fill-rule="evenodd" d="m60.516 21.794 1.37.2 1.7 1.94v14.18c0 9.86-4.76 17.17-9.5 22a41 41 0 0 1-10 7.52l-.7.36h-1.8l-.72-.36a31 31 0 0 1-3.47-2.08l2.27-3.29a28 28 0 0 0 2.83 1.71 37.8 37.8 0 0 0 8.78-6.65c4.28-4.37 8.35-10.73 8.35-19.2v-12.41a31.55 31.55 0 0 1-17.13-8.53 31.63 31.63 0 0 1-17.14 8.54v6.05h-4v-7.78l1.71-2 1.29-.23a27.56 27.56 0 0 0 15.41-7.65l1.15-1.28h3l1.15 1.28a27.48 27.48 0 0 0 15.45 7.68m-22.32 16.12a11.71 11.71 0 0 0-18.032 1.774c-.406.608-.754 1.25-1.039 1.918a11.7 11.7 0 0 0-.93 4.598 18.4 18.4 0 0 0 1.672 6.79q.798 1.846 1.73 3.626a52 52 0 0 0 1.708 2.994c1.242 2 2.468 3.85 3.39 5.15.282.391.797 1.087 1.157 1.57l.394.53h3.16s1.098-1.44 1.57-2.09c.938-1.29 2.2-3.1 3.458-5.14a52 52 0 0 0 3.5-6.62 18.2 18.2 0 0 0 1.691-6.83 11.73 11.73 0 0 0-3.43-8.27m-1.942 13.55a46 46 0 0 1-3.23 6.09 79 79 0 0 1-3.18 4.75c-.867-1.23-2-2.88-3.11-4.74a47 47 0 0 1-3.18-6.09 14.8 14.8 0 0 1-1.347-5.27 7.71 7.71 0 0 1 7.707-7.71 7.71 7.71 0 0 1 7.711 7.71 14.5 14.5 0 0 1-1.371 5.26m-4.215-7.2a3 3 0 0 0-1.539-.82 2.93 2.93 0 0 0-1.73.17 3 3 0 0 0-1.352 1.102 2.98 2.98 0 0 0-.078 3.21 2.98 2.98 0 0 0 1.851 1.368q.43.105.872.084a3 3 0 0 0 1.988-.892c.27-.273.488-.596.64-.952a3.15 3.15 0 0 0 .168-1.74 3 3 0 0 0-.82-1.53" clip-rule="evenodd"/></svg>
